static/characters/uzukumari/front-walking-2.svg

<svg width="160" height="182" xmlns="http://www.w3.org/2000/svg" xml:space="preserve" style="fill-rule:evenodd;clip-rule:evenodd;stroke-linejoin:round;stroke-miterlimit:1.5"><path d="m16.532 87.891-14 7.655 12 5.294.612 26.051-12.612 7 12.612 5.166c14.104 7.269 30.085 4.298 41.856.288 6.41 1.88 43.246-2.213 49-4.695l30.25-1.15v-11l-6.25-1-25-.5c-4.085-2.075-3.438-3.677 0-5l28.25-.5V104l-5.75-2.5-24.5.5c-4.436-11.502-24.817-18.756-37.257-16.04-9.437 2.06-7.846-7.252-16.304-9.518-6-4.118-14.212-4.664-20.212-1.005-6.162 3.105-10.421 3.905-12.695 12.454Z" style="fill:#fff" transform="matrix(-1 0 0 1 150.657 -1.919)"/><path d="M52.35 77.6c5.776 6.377 4.387 9.431 21.946 7.655 7.402-.749 22.491 6.867 26.704 13.774" style="fill:none;stroke:#000;stroke-width:3px" transform="matrix(-1 0 0 1 150.657 -1.919)"/><path d="m46.144 86.584-13.269 6.962 12.777 4.997" style="fill:none;stroke:#000;stroke-width:3px" transform="matrix(-1 0 0 1 180.657 -.545)"/><path d="m46.144 86.584-13.269 6.962 12.777 4.997" style="fill:none;stroke:#000;stroke-width:3px" transform="matrix(-1 0 0 1 180.657 37.624)"/><path d="M45.532 104.546v17-17Zm4-25c.023 1.554-.233 2.813-1.5 3" style="fill:none;stroke:#000;stroke-width:3px" transform="matrix(-1 0 0 1 180.657 -.545)"/><path d="M49.227 84.092c.023 1.554-.232 2.813-1.5 3" style="fill:none;stroke:#000;stroke-width:3px" transform="matrix(-1 0 0 1 171.908 -11.045)"/><path d="M61.227 73.092c5-3.165 11.898-2.013 16.898 1.152" style="fill:none;stroke:#000;stroke-width:3px" transform="matrix(-1 0 0 1 180.657 -.545)"/><path d="m103 102 23.5-.5" style="fill:none;stroke:#000;stroke-width:3px" transform="matrix(-1 0 0 1 150.657 -1.919)"/><path d="M64.532 110.046c1.28-2.089 2.172-2.141 4-1.592 1.118.336 1.573 2.358.694 3.592-.383.539-.918.955-1.694 1.258.654.003 1.319.346 2 .671 1.671.799.802 5.083-2 4.724-1.243-.159-2.514-.702-3-3.153" style="fill:none;stroke:#000;stroke-width:3px" transform="matrix(-1 0 0 1 180.657 -.545)"/><path d="m106 121.5 23.5-.5m-2.5-17h6v12" style="fill:none;stroke:#000;stroke-width:3px" transform="matrix(-1 0 0 1 150.657 -1.919)"/><path d="M127 104h6v12" style="fill:none;stroke:#000;stroke-width:3px" transform="matrix(-1 0 0 1 147.657 17.081)"/><path d="M128 109.5h4.5" style="fill:none;stroke:#000;stroke-width:3px" transform="matrix(-1 0 0 1 150.657 -1.919)"/><path d="M128 109.5h4.5" style="fill:none;stroke:#000;stroke-width:3px" transform="matrix(-1 0 0 1 147.657 17.081)"/><path d="M127 114.5h6" style="fill:none;stroke:#000;stroke-width:3px" transform="matrix(-1 0 0 1 150.657 -1.919)"/><path d="M127 114.5h6" style="fill:none;stroke:#000;stroke-width:3px" transform="matrix(-1 0 0 1 147.657 17.081)"/><path d="M91.5 105v9c2.543 3 5.364 3.132 8.5 0v-9" style="fill:none;stroke:#000;stroke-width:3px" transform="scale(-1 1) rotate(-42.083 -8.77 339.998)"/><path d="M91.5 105v9c2.543 3 5.364 3.132 8.5 0v-9" style="fill:none;stroke:#000;stroke-width:3px" transform="rotate(138.353 86.823 117.803)"/><circle cx="68" cy="89.5" r="1.5" transform="matrix(-1.33333 0 0 1.33333 205.199 -28.333)"/><circle cx="68" cy="89.5" r="1.5" transform="matrix(-1.33333 0 0 1.33333 205.199 10.558)"/></svg>

<?xml version="1.0" encoding="UTF-8" standalone="no"?>
<!DOCTYPE svg PUBLIC "-//W3C//DTD SVG 1.1//EN" "http://www.w3.org/Graphics/SVG/1.1/DTD/svg11.dtd">
<svg width="160" height="182" viewBox="0 0 160 182" version="1.1" xmlns="http://www.w3.org/2000/svg" xmlns:xlink="http://www.w3.org/1999/xlink" xml:space="preserve" xmlns:serif="http://www.serif.com/" style="fill-rule:evenodd;clip-rule:evenodd;stroke-linejoin:round;stroke-miterlimit:1.5;">
    <g transform="matrix(-1,0,0,1,150.657,-1.91893)">
        <g id="front-walking2">
            <path d="M16.532,87.891L2.532,95.546L14.532,100.84L15.144,126.891L2.532,133.891L15.144,139.057C29.248,146.326 45.229,143.355 57,139.345C63.41,141.225 100.246,137.132 106,134.65L136.25,133.5L136.25,122.5L130,121.5L105,121C100.915,118.925 101.562,117.323 105,116L133.25,115.5L133.25,104L127.5,101.5L103,102C98.564,90.498 78.183,83.244 65.743,85.96C56.306,88.02 57.897,78.708 49.439,76.442C43.439,72.324 35.227,71.778 29.227,75.437C23.065,78.542 18.806,79.342 16.532,87.891Z" style="fill:white;"/>
            <path d="M52.35,77.6C58.126,83.977 56.737,87.031 74.296,85.255C81.698,84.506 96.787,92.122 101,99.029" style="fill:none;stroke:black;stroke-width:3px;"/>
            <g transform="matrix(1,0,0,1,-30,1.3735)">
                <path d="M46.144,86.584L32.875,93.546L45.652,98.543" style="fill:none;stroke:black;stroke-width:3px;"/>
            </g>
            <g transform="matrix(1,0,0,1,-30,39.5427)">
                <path d="M46.144,86.584L32.875,93.546L45.652,98.543" style="fill:none;stroke:black;stroke-width:3px;"/>
            </g>
            <g transform="matrix(1,0,0,1,-30,1.3735)">
                <path d="M45.532,104.546L45.532,121.546L45.532,104.546Z" style="fill:none;stroke:black;stroke-width:3px;"/>
            </g>
            <g transform="matrix(1,0,0,1,-30,1.3735)">
                <path d="M49.532,79.546C49.555,81.1 49.299,82.359 48.032,82.546" style="fill:none;stroke:black;stroke-width:3px;"/>
            </g>
            <g transform="matrix(1,0,0,1,-21.2507,-9.1265)">
                <path d="M49.227,84.092C49.25,85.646 48.995,86.905 47.727,87.092" style="fill:none;stroke:black;stroke-width:3px;"/>
            </g>
            <g transform="matrix(1,0,0,1,-30,1.3735)">
                <path d="M61.227,73.092C66.227,69.927 73.125,71.079 78.125,74.244" style="fill:none;stroke:black;stroke-width:3px;"/>
            </g>
            <path d="M103,102L126.5,101.5" style="fill:none;stroke:black;stroke-width:3px;"/>
            <g transform="matrix(1,0,0,1,-30,1.3735)">
                <path d="M64.532,110.046C65.812,107.957 66.704,107.905 68.532,108.454C69.65,108.79 70.105,110.812 69.226,112.046C68.843,112.585 68.308,113.001 67.532,113.304C68.186,113.307 68.851,113.65 69.532,113.975C71.203,114.774 70.334,119.058 67.532,118.699C66.289,118.54 65.018,117.997 64.532,115.546" style="fill:none;stroke:black;stroke-width:3px;"/>
            </g>
            <path d="M106,121.5L129.5,121" style="fill:none;stroke:black;stroke-width:3px;"/>
            <path d="M127,104L133,104L133,116" style="fill:none;stroke:black;stroke-width:3px;"/>
            <g transform="matrix(1,0,0,1,3,19)">
                <path d="M127,104L133,104L133,116" style="fill:none;stroke:black;stroke-width:3px;"/>
            </g>
            <path d="M128,109.5L132.5,109.5" style="fill:none;stroke:black;stroke-width:3px;"/>
            <g transform="matrix(1,0,0,1,3,19)">
                <path d="M128,109.5L132.5,109.5" style="fill:none;stroke:black;stroke-width:3px;"/>
            </g>
            <path d="M127,114.5L133,114.5" style="fill:none;stroke:black;stroke-width:3px;"/>
            <g transform="matrix(1,0,0,1,3,19)">
                <path d="M127,114.5L133,114.5" style="fill:none;stroke:black;stroke-width:3px;"/>
            </g>
            <g transform="matrix(0.742179,-0.670202,0.670202,0.742179,-79.4713,83.6997)">
                <path d="M91.5,105L91.5,114C94.043,117 96.864,117.132 100,114L100,105" style="fill:none;stroke:black;stroke-width:3px;"/>
            </g>
            <g transform="matrix(0.74725,0.664543,0.664543,-0.74725,-79.3307,150.053)">
                <path d="M91.5,105L91.5,114C94.043,117 96.864,117.132 100,114L100,105" style="fill:none;stroke:black;stroke-width:3px;"/>
            </g>
            <g transform="matrix(1.33333,0,0,1.33333,-54.5417,-26.4144)">
                <circle cx="68" cy="89.5" r="1.5"/>
            </g>
            <g transform="matrix(1.33333,0,0,1.33333,-54.5417,12.4771)">
                <circle cx="68" cy="89.5" r="1.5"/>
            </g>
        </g>
    </g>
</svg>
